web/app/themes/new-web-marcello/dist/images/icons/application-service-icon.svg

<svg width="189" height="188" viewBox="0 0 189 188" fill="none" xmlns="http://www.w3.org/2000/svg">
<path d="M93.004 116.285H35.86V122.885H100.476C97.6994 121.024 95.1909 118.798 93.004 116.285Z" fill="#EBE7F2"/>
<path d="M173.087 146.669L156.167 129.788C154.066 127.692 154.04 124.311 156.089 122.183C156.056 122.215 156.022 122.247 155.99 122.28L152.139 126.122C150.013 128.244 150.013 131.684 152.139 133.807L169.059 150.688C171.187 152.81 174.635 152.81 176.762 150.688L180.612 146.846C180.639 146.82 180.664 146.793 180.689 146.767C178.556 148.79 175.181 148.758 173.087 146.669Z" fill="#EBE7F2"/>
<path d="M137.548 75.7375C133.25 71.4488 127.534 69.087 121.456 69.087C115.377 69.087 109.662 71.4488 105.364 75.7375C96.4907 84.5904 96.4907 98.9937 105.364 107.847C106.083 108.564 107.249 108.564 107.966 107.847C108.685 107.129 108.685 105.967 107.966 105.251C100.528 97.8297 100.528 85.7551 107.966 78.3343C111.569 74.7395 116.36 72.7597 121.456 72.7597C126.551 72.7597 131.342 74.7395 134.946 78.3343C142.384 85.7551 142.384 97.8297 134.946 105.251C134.227 105.968 134.227 107.13 134.946 107.847C135.305 108.205 135.776 108.384 136.247 108.384C136.718 108.384 137.189 108.205 137.548 107.847C146.421 98.9937 146.421 84.5904 137.548 75.7375Z" fill="#58518c"/>
<path d="M130.62 82.3946L123.954 86.9125C123.109 86.3632 122.1 86.0438 121.016 86.0438C118.04 86.0438 115.628 88.4503 115.628 91.4194C115.628 94.3885 118.04 96.795 121.016 96.795C123.992 96.795 126.404 94.3885 126.404 91.4194C126.404 91.0551 126.367 90.699 126.298 90.3553L132.964 85.8367C133.917 85.1912 134.164 83.8972 133.518 82.9462C132.869 81.9951 131.572 81.7499 130.62 82.3946Z" fill="#58518c"/>
<path d="M162.957 101.867C161.94 101.867 161.116 102.689 161.116 103.703V114.93C161.116 115.944 161.94 116.766 162.957 116.766C163.973 116.766 164.797 115.944 164.797 114.93V103.703C164.797 102.689 163.973 101.867 162.957 101.867Z" fill="#846F75"/>
<path d="M26.0458 127.291C27.0623 127.291 27.886 126.47 27.886 125.455V47.6117C27.886 46.599 28.7119 45.7758 29.7262 45.7758H159.276C160.29 45.7758 161.116 46.599 161.116 47.6117V81.2549C161.116 82.269 161.94 83.0908 162.956 83.0908C163.973 83.0908 164.797 82.269 164.797 81.2549V47.6117C164.797 44.5743 162.321 42.1039 159.276 42.1039H29.7262C26.6818 42.1039 24.2056 44.5743 24.2056 47.6117V125.455C24.2056 126.47 25.0293 127.291 26.0458 127.291Z" fill="#846F75"/>
<path d="M153.142 63.3398C154.159 63.3398 154.983 62.518 154.983 61.5039V53.1195C154.983 52.1053 154.159 51.2836 153.142 51.2836H141.242C140.226 51.2836 139.402 52.1053 139.402 53.1195C139.402 54.1337 140.226 54.9554 141.242 54.9554H151.302V61.5039C151.302 62.518 152.126 63.3398 153.142 63.3398Z" fill="#846F75"/>
<path d="M103.825 53.1195C103.825 52.1053 103.001 51.2836 101.985 51.2836H35.86C34.8434 51.2836 34.0198 52.1053 34.0198 53.1195V122.885C34.0198 123.899 34.8434 124.721 35.86 124.721H90.6367C91.6533 124.721 92.4769 123.899 92.4769 122.885C92.4769 121.871 91.6533 121.049 90.6367 121.049H37.7002V54.9554H101.984C103.001 54.9554 103.825 54.1337 103.825 53.1195Z" fill="#846F75"/>
<path d="M134.433 130.229C133.417 130.229 132.593 131.051 132.593 132.065C132.593 133.079 133.417 133.901 134.433 133.901H144.186C145.203 133.901 146.027 133.079 146.027 132.065C146.027 131.051 145.203 130.229 144.186 130.229H134.433Z" fill="#846F75"/>
<path d="M153.94 142.224H20.2801C17.9799 142.224 16.1088 140.357 16.1088 138.062C16.1088 135.768 17.9799 133.901 20.2801 133.901H104.53C105.547 133.901 106.37 133.079 106.37 132.065C106.37 131.051 105.547 130.229 104.53 130.229H20.2801C15.9512 130.229 12.4284 133.743 12.4284 138.062C12.4284 142.382 15.9505 145.896 20.2801 145.896H153.94C154.956 145.896 155.78 145.074 155.78 144.06C155.78 143.046 154.956 142.224 153.94 142.224Z" fill="#846F75"/>
<path d="M181.913 137.863L164.993 120.982C162.152 118.148 157.529 118.149 154.687 120.983L150.837 124.825C147.997 127.659 147.997 132.271 150.838 135.105L167.758 151.986C169.134 153.359 170.964 154.114 172.911 154.114C174.857 154.114 176.687 153.358 178.063 151.985L181.914 148.144C184.754 145.309 184.754 140.697 181.913 137.863ZM179.311 145.547L175.46 149.388C174.779 150.068 173.873 150.443 172.911 150.443C171.948 150.443 171.042 150.068 170.361 149.389L153.441 132.508C152.035 131.106 152.034 128.823 153.441 127.42L157.29 123.578C157.972 122.898 158.877 122.524 159.841 122.524C160.804 122.524 161.71 122.898 162.391 123.578L179.311 140.459C180.717 141.862 180.717 144.144 179.311 145.547Z" fill="#846F75"/>
<path d="M121.456 61.9276C105.018 61.9276 91.646 75.269 91.646 91.6676C91.646 108.067 105.018 121.408 121.456 121.408C137.893 121.408 151.265 108.067 151.265 91.6676C151.265 75.269 137.893 61.9276 121.456 61.9276ZM121.456 117.736C107.048 117.736 95.3264 106.042 95.3264 91.6676C95.3264 77.2937 107.048 65.5995 121.456 65.5995C135.864 65.5995 147.585 77.2937 147.585 91.6676C147.585 106.042 135.863 117.736 121.456 117.736Z" fill="#846F75"/>
<path d="M121.456 52.2485C99.6692 52.2485 81.9451 69.9315 81.9451 91.6676C81.9451 113.404 99.6699 131.087 121.456 131.087C129.505 131.087 137.183 128.714 143.765 124.206L145.124 125.563C145.843 126.28 147.008 126.28 147.727 125.563C148.446 124.846 148.446 123.683 147.727 122.967L145.265 120.509C144.619 119.864 143.595 119.79 142.863 120.336C136.643 124.968 129.24 127.416 121.456 127.416C101.699 127.416 85.6255 111.38 85.6255 91.6683C85.6255 71.957 101.699 55.9211 121.456 55.9211C141.213 55.9211 157.286 71.957 157.286 91.6683C157.286 99.4351 154.832 106.821 150.19 113.026C149.643 113.757 149.717 114.778 150.363 115.422L152.824 117.88C153.543 118.596 154.708 118.596 155.427 117.88C156.146 117.163 156.146 116 155.427 115.284L154.068 113.927C158.586 107.36 160.965 99.6987 160.965 91.6683C160.966 69.9323 143.242 52.2485 121.456 52.2485Z" fill="#846F75"/>
<path d="M45.6874 69.087C44.6709 69.087 43.8472 69.9088 43.8472 70.923V103.703C43.8472 104.717 44.6709 105.539 45.6874 105.539H75.5862C76.6027 105.539 77.4264 104.717 77.4264 103.703C77.4264 102.689 76.6027 101.867 75.5862 101.867H75.5317V88.0023C75.5317 86.9882 74.708 86.1664 73.6915 86.1664C72.675 86.1664 71.8513 86.9882 71.8513 88.0023V101.867H68.3726V83.7643C68.3726 82.7501 67.5489 81.9283 66.5324 81.9283C65.5159 81.9283 64.6922 82.7501 64.6922 83.7643V101.867H61.2135V90.276C61.2135 89.2618 60.3898 88.44 59.3733 88.44C58.3568 88.44 57.5331 89.2618 57.5331 90.276V101.867H54.0544V96.795C54.0544 95.7808 53.2307 94.9591 52.2142 94.9591C51.1977 94.9591 50.374 95.7808 50.374 96.795V101.867H47.5276V70.923C47.5276 69.9088 46.7032 69.087 45.6874 69.087Z" fill="#846F75"/>
</svg>

<svg width="189" height="188" fill="none" xmlns="http://www.w3.org/2000/svg"><path d="M93.004 116.285H35.86v6.6h64.616a37.853 37.853 0 01-7.472-6.6zm80.083 30.384l-16.92-16.881a5.424 5.424 0 01-.078-7.605c-.033.032-.067.064-.099.097l-3.851 3.842a5.427 5.427 0 000 7.685l16.92 16.881a5.456 5.456 0 007.703 0l3.85-3.842c.027-.026.052-.053.077-.079a5.456 5.456 0 01-7.602-.098z" fill="#EBE7F2"/><path d="M137.548 75.737c-4.298-4.288-10.014-6.65-16.092-6.65-6.079 0-11.794 2.362-16.092 6.65-8.873 8.853-8.873 23.257 0 32.11a1.843 1.843 0 002.602 0 1.832 1.832 0 000-2.596c-7.438-7.421-7.438-19.496 0-26.917a18.975 18.975 0 0113.49-5.574c5.095 0 9.886 1.98 13.49 5.574 7.438 7.421 7.438 19.496 0 26.917a1.832 1.832 0 000 2.596c.359.358.83.537 1.301.537s.942-.179 1.301-.537c8.873-8.853 8.873-23.257 0-32.11z" fill="#58518c"/><path d="M130.62 82.395l-6.666 4.517a5.373 5.373 0 00-2.938-.868 5.381 5.381 0 00-5.388 5.375 5.381 5.381 0 005.388 5.376 5.381 5.381 0 005.282-6.44l6.666-4.518c.953-.646 1.2-1.94.554-2.89a2.09 2.09 0 00-2.898-.552z" fill="#58518c"/><path d="M162.957 101.867a1.838 1.838 0 00-1.841 1.836v11.227c0 1.014.824 1.836 1.841 1.836 1.016 0 1.84-.822 1.84-1.836v-11.227a1.838 1.838 0 00-1.84-1.836zM26.046 127.291c1.016 0 1.84-.821 1.84-1.836V47.612a1.84 1.84 0 011.84-1.836h129.55a1.84 1.84 0 011.84 1.836v33.643c0 1.014.824 1.836 1.84 1.836a1.838 1.838 0 001.841-1.836V47.612c0-3.038-2.476-5.508-5.521-5.508H29.726c-3.044 0-5.52 2.47-5.52 5.508v77.843c0 1.015.823 1.836 1.84 1.836z" fill="#846F75"/><path d="M153.142 63.34a1.838 1.838 0 001.841-1.836V53.12a1.838 1.838 0 00-1.841-1.836h-11.9c-1.016 0-1.84.821-1.84 1.836 0 1.014.824 1.835 1.84 1.835h10.06v6.549c0 1.014.824 1.836 1.84 1.836zm-49.317-10.22a1.838 1.838 0 00-1.84-1.836H35.86c-1.017 0-1.84.821-1.84 1.836v69.765c0 1.014.823 1.836 1.84 1.836h54.777c1.016 0 1.84-.822 1.84-1.836a1.838 1.838 0 00-1.84-1.836H37.7V54.955h64.284a1.838 1.838 0 001.841-1.835zm30.608 77.109c-1.016 0-1.84.822-1.84 1.836 0 1.014.824 1.836 1.84 1.836h9.753a1.838 1.838 0 001.841-1.836 1.838 1.838 0 00-1.841-1.836h-9.753zm19.507 11.995H20.28a4.171 4.171 0 01-4.171-4.162 4.171 4.171 0 014.171-4.161h84.25c1.017 0 1.84-.822 1.84-1.836a1.837 1.837 0 00-1.84-1.836H20.28c-4.329 0-7.852 3.514-7.852 7.833 0 4.32 3.522 7.834 7.852 7.834h133.66c1.016 0 1.84-.822 1.84-1.836a1.838 1.838 0 00-1.84-1.836zm27.973-4.361l-16.92-16.881c-2.841-2.834-7.464-2.833-10.306.001l-3.85 3.842a7.266 7.266 0 00.001 10.28l16.92 16.881a7.246 7.246 0 005.153 2.128 7.247 7.247 0 005.152-2.129l3.851-3.841a7.267 7.267 0 00-.001-10.281zm-2.602 7.684l-3.851 3.841a3.586 3.586 0 01-2.549 1.055 3.59 3.59 0 01-2.55-1.054l-16.92-16.881a3.595 3.595 0 010-5.088l3.849-3.842a3.588 3.588 0 012.551-1.054c.963 0 1.869.374 2.55 1.054l16.92 16.881a3.596 3.596 0 010 5.088z" fill="#846F75"/><path d="M121.456 61.928c-16.438 0-29.81 13.341-29.81 29.74s13.372 29.74 29.81 29.74c16.437 0 29.809-13.341 29.809-29.74s-13.372-29.74-29.809-29.74zm0 55.808c-14.408 0-26.13-11.694-26.13-26.068s11.722-26.069 26.13-26.069 26.129 11.695 26.129 26.069c0 14.374-11.722 26.068-26.129 26.068z" fill="#846F75"/><path d="M121.456 52.248c-21.787 0-39.51 17.684-39.51 39.42s17.724 39.419 39.51 39.419c8.049 0 15.727-2.373 22.309-6.881l1.359 1.357a1.844 1.844 0 002.603 0 1.832 1.832 0 000-2.596l-2.462-2.458a1.843 1.843 0 00-2.402-.173c-6.22 4.632-13.623 7.08-21.407 7.08-19.757 0-35.83-16.036-35.83-35.748 0-19.711 16.073-35.747 35.83-35.747 19.757 0 35.83 16.036 35.83 35.747 0 7.767-2.454 15.153-7.096 21.358a1.832 1.832 0 00.173 2.396l2.461 2.458a1.846 1.846 0 002.603 0 1.832 1.832 0 000-2.596l-1.359-1.357c4.518-6.567 6.897-14.228 6.897-22.259.001-21.736-17.723-39.42-39.509-39.42zM45.687 69.087c-1.016 0-1.84.822-1.84 1.836v32.78c0 1.014.824 1.836 1.84 1.836h29.9c1.016 0 1.84-.822 1.84-1.836a1.838 1.838 0 00-1.84-1.836h-.055V88.002a1.838 1.838 0 00-1.84-1.836c-1.017 0-1.84.822-1.84 1.836v13.865h-3.48V83.764a1.838 1.838 0 00-1.84-1.836c-1.016 0-1.84.822-1.84 1.836v18.103h-3.478V90.276a1.838 1.838 0 00-1.84-1.836c-1.017 0-1.84.822-1.84 1.836v11.591h-3.48v-5.072a1.838 1.838 0 00-1.84-1.836c-1.016 0-1.84.822-1.84 1.836v5.072h-2.846V70.923a1.838 1.838 0 00-1.84-1.836z" fill="#846F75"/></svg>
